Numix-Circle/48x48/apps/chrome-eifdbcbnlahelniokpkpdlhaocgjdcje-Default.svg

<?xml version="1.0" encoding="UTF-8" standalone="no"?>
<svg
   xmlns:dc="http://purl.org/dc/elements/1.1/"
   xmlns:cc="http://creativecommons.org/ns#"
   xmlns:rdf="http://www.w3.org/1999/02/22-rdf-syntax-ns#"
   xmlns:svg="http://www.w3.org/2000/svg"
   xmlns="http://www.w3.org/2000/svg"
   xmlns:sodipodi="http://sodipodi.sourceforge.net/DTD/sodipodi-0.dtd"
   xmlns:inkscape="http://www.inkscape.org/namespaces/inkscape"
   viewBox="0 0 48 48"
   id="svg2"
   version="1.1"
   inkscape:version="0.48.5 r10040"
   width="100%"
   height="100%"
   sodipodi:docname="chrome-eifdbcbnlahelniokpkpdlhaocgjdcje-Default.svg">
  <metadata
     id="metadata85">
    <rdf:RDF>
      <cc:Work
         rdf:about="">
        <dc:format>image/svg+xml</dc:format>
        <dc:type
           rdf:resource="http://purl.org/dc/dcmitype/StillImage" />
      </cc:Work>
    </rdf:RDF>
  </metadata>
  <sodipodi:namedview
     pagecolor="#ffffff"
     bordercolor="#666666"
     borderopacity="1"
     objecttolerance="10"
     gridtolerance="10"
     guidetolerance="10"
     inkscape:pageopacity="0"
     inkscape:pageshadow="2"
     inkscape:window-width="1280"
     inkscape:window-height="998"
     id="namedview83"
     showgrid="true"
     inkscape:zoom="5.6568543"
     inkscape:cx="53.662174"
     inkscape:cy="-5.6958503"
     inkscape:window-x="0"
     inkscape:window-y="0"
     inkscape:window-maximized="1"
     inkscape:current-layer="svg2">
    <inkscape:grid
       type="xygrid"
       id="grid3079" />
  </sodipodi:namedview>
  <defs
     id="defs4">
    <linearGradient
       id="linearGradient4022">
      <stop
         style="stop-color:#e4e4e4;stop-opacity:1;"
         offset="0"
         id="stop4024" />
      <stop
         style="stop-color:#eeeeee;stop-opacity:1;"
         offset="1"
         id="stop4026" />
    </linearGradient>
    <linearGradient
       id="linearGradient3764"
       x1="1"
       x2="47"
       gradientUnits="userSpaceOnUse"
       gradientTransform="matrix(0,-1,1,0,-1.5e-6,47.999998)">
      <stop
         stop-color="#dbdbdb"
         stop-opacity="1"
         id="stop7" />
      <stop
         offset="1"
         stop-color="#e5e5e5"
         stop-opacity="1"
         id="stop9" />
    </linearGradient>
    <clipPath
       id="clipPath-859258385">
      <g
         transform="translate(0,-1004.3622)"
         id="g12">
        <path
           d="m -24 13 c 0 1.105 -0.672 2 -1.5 2 -0.828 0 -1.5 -0.895 -1.5 -2 0 -1.105 0.672 -2 1.5 -2 0.828 0 1.5 0.895 1.5 2 z"
           transform="matrix(15.333333,0,0,11.5,414.99999,878.8622)"
           fill="#1890d0"
           id="path14" />
      </g>
    </clipPath>
    <clipPath
       id="clipPath-869905746">
      <g
         transform="translate(0,-1004.3622)"
         id="g17">
        <path
           d="m -24 13 c 0 1.105 -0.672 2 -1.5 2 -0.828 0 -1.5 -0.895 -1.5 -2 0 -1.105 0.672 -2 1.5 -2 0.828 0 1.5 0.895 1.5 2 z"
           transform="matrix(15.333333,0,0,11.5,414.99999,878.8622)"
           fill="#1890d0"
           id="path19" />
      </g>
    </clipPath>
    <clipPath
       clipPathUnits="userSpaceOnUse"
       id="clipPath3075">
      <rect
         style="opacity:0.1;fill:#000000;fill-opacity:1;fill-rule:nonzero;stroke:none"
         id="rect3077"
         width="300.86795"
         height="301.44327"
         x="-151.29689"
         y="-148.74347" />
    </clipPath>
  </defs>
  <g
     id="g21">
    <path
       d="m 36.31 5 c 5.859 4.062 9.688 10.831 9.688 18.5 c 0 12.426 -10.07 22.5 -22.5 22.5 c -7.669 0 -14.438 -3.828 -18.5 -9.688 c 1.037 1.822 2.306 3.499 3.781 4.969 c 4.085 3.712 9.514 5.969 15.469 5.969 c 12.703 0 23 -10.298 23 -23 c 0 -5.954 -2.256 -11.384 -5.969 -15.469 c -1.469 -1.475 -3.147 -2.744 -4.969 -3.781 z m 4.969 3.781 c 3.854 4.113 6.219 9.637 6.219 15.719 c 0 12.703 -10.297 23 -23 23 c -6.081 0 -11.606 -2.364 -15.719 -6.219 c 4.16 4.144 9.883 6.719 16.219 6.719 c 12.703 0 23 -10.298 23 -23 c 0 -6.335 -2.575 -12.06 -6.719 -16.219 z"
       opacity="0.05"
       id="path23" />
    <path
       d="m 41.28 8.781 c 3.712 4.085 5.969 9.514 5.969 15.469 c 0 12.703 -10.297 23 -23 23 c -5.954 0 -11.384 -2.256 -15.469 -5.969 c 4.113 3.854 9.637 6.219 15.719 6.219 c 12.703 0 23 -10.298 23 -23 c 0 -6.081 -2.364 -11.606 -6.219 -15.719 z"
       opacity="0.1"
       id="path25" />
    <path
       d="m 31.25 2.375 c 8.615 3.154 14.75 11.417 14.75 21.13 c 0 12.426 -10.07 22.5 -22.5 22.5 c -9.708 0 -17.971 -6.135 -21.12 -14.75 a 23 23 0 0 0 44.875 -7 a 23 23 0 0 0 -16 -21.875 z"
       opacity="0.2"
       id="path27" />
  </g>
  <g
     id="g29"
     style="fill:#5a5daa;fill-opacity:1"
     transform="matrix(0,-1,1,0,0,48)">
    <path
       d="M 24,1 C 36.703,1 47,11.297 47,24 47,36.703 36.703,47 24,47 11.297,47 1,36.703 1,24 1,11.297 11.297,1 24,1 z"
       id="path31"
       style="fill:#5a5daa;fill-opacity:1"
       inkscape:connector-curvature="0" />
  </g>
  <path
     style="fill:#000000;fill-opacity:1;fill-rule:nonzero;stroke:none;opacity:0.1"
     d="m 26.845442,12.006614 c -0.13257,0.01086 -0.273947,0.05512 -0.406622,0.09377 -1.061403,0.309194 -1.654399,1.408609 -1.344984,2.469255 l 0.844525,2.875587 -0.03128,0 -5.755279,1.687845 -0.844524,-2.875588 c -0.309415,-1.060646 -1.409613,-1.684474 -2.471016,-1.37528 -1.061404,0.309193 -1.685676,1.408607 -1.376263,2.469254 l 0.844525,2.906843 -2.877639,0.843923 c -1.061404,0.309193 -1.654398,1.408608 -1.344984,2.469254 0.309415,1.060647 1.409613,1.653218 2.471016,1.344025 l 2.87764,-0.843923 1.689049,5.782431 -2.877639,0.843923 c -1.061403,0.309193 -1.685677,1.408608 -1.376263,2.469254 0.309414,1.060647 1.409613,1.684474 2.471017,1.375281 l 2.908917,-0.843923 0.844525,2.875588 c 0.309414,1.060645 1.409614,1.653218 2.471016,1.344024 1.061404,-0.309193 1.654398,-1.408607 1.344984,-2.469254 l -0.844525,-2.875587 5.786557,-1.687845 0.844525,2.875587 c 0.309414,1.060647 1.409613,1.684474 2.471016,1.375281 1.061403,-0.309194 1.685677,-1.408608 1.376262,-2.469254 l -0.844524,-2.906844 2.877639,-0.843922 c 1.061403,-0.309194 1.654397,-1.408608 1.344984,-2.469255 -0.309414,-1.060646 -1.409613,-1.653217 -2.471017,-1.344024 l -2.877639,0.843922 0,-0.03126 -1.689049,-5.751175 2.877639,-0.843922 c 1.061404,-0.309193 1.685677,-1.408609 1.376263,-2.469254 C 34.82488,15.790707 33.72468,15.16688 32.663277,15.476073 l -2.908918,0.843922 -0.844524,-2.875587 c -0.270738,-0.928066 -1.136402,-1.513829 -2.064394,-1.437794 z m 0.187673,9.25189 1.689049,5.782431 0,0.03126 -5.755279,1.656588 -1.689049,-5.751174 0,-0.03126 5.755279,-1.687844 z"
     id="path4032"
     inkscape:connector-curvature="0" />
  <g
     id="g33" />
  <g
     id="g79">
    <path
       d="m 40.03 7.531 c 3.712 4.084 5.969 9.514 5.969 15.469 0 12.703 -10.297 23 -23 23 c -5.954 0 -11.384 -2.256 -15.469 -5.969 4.178 4.291 10.01 6.969 16.469 6.969 c 12.703 0 23 -10.298 23 -23 0 -6.462 -2.677 -12.291 -6.969 -16.469 z"
       opacity="0.1"
       id="path81" />
  </g>
  <path
     style="opacity:1;fill:#f8f8fb;fill-opacity:1;fill-rule:nonzero;stroke:none"
     d="M 25.84375 11 C 25.711301 11.01086 25.570054 11.055109 25.4375 11.09375 C 24.377071 11.40288 23.784619 12.502071 24.09375 13.5625 L 24.9375 16.4375 L 24.90625 16.4375 L 19.15625 18.125 L 18.3125 15.25 C 18.003369 14.18957 16.90418 13.56587 15.84375 13.875 C 14.78332 14.18413 14.15962 15.28332 14.46875 16.34375 L 15.3125 19.25 L 12.4375 20.09375 C 11.37707 20.40288 10.78462 21.50207 11.09375 22.5625 C 11.402881 23.62293 12.50207 24.21538 13.5625 23.90625 L 16.4375 23.0625 L 18.125 28.84375 L 15.25 29.6875 C 14.189571 29.99663 13.56587 31.095821 13.875 32.15625 C 14.18413 33.21668 15.28332 33.84038 16.34375 33.53125 L 19.25 32.6875 L 20.09375 35.5625 C 20.40288 36.622929 21.502071 37.215381 22.5625 36.90625 C 23.62293 36.59712 24.21538 35.49793 23.90625 34.4375 L 23.0625 31.5625 L 28.84375 29.875 L 29.6875 32.75 C 29.99663 33.81043 31.09582 34.43413 32.15625 34.125 C 33.216679 33.815869 33.840381 32.71668 33.53125 31.65625 L 32.6875 28.75 L 35.5625 27.90625 C 36.622929 27.597119 37.21538 26.49793 36.90625 25.4375 C 36.59712 24.37707 35.49793 23.78462 34.4375 24.09375 L 31.5625 24.9375 L 29.875 19.15625 L 32.75 18.3125 C 33.81043 18.00337 34.434131 16.904179 34.125 15.84375 C 33.81587 14.78332 32.716679 14.15962 31.65625 14.46875 L 28.75 15.3125 L 27.90625 12.4375 C 27.635761 11.509624 26.77089 10.92398 25.84375 11 z M 26.03125 20.28125 L 26.0625 20.28125 L 27.71875 26.03125 L 27.71875 26.0625 L 21.96875 27.71875 L 21.9375 27.71875 L 20.28125 21.96875 L 20.28125 21.9375 L 26.03125 20.28125 z "
     id="rect3085" />
</svg>

<svg xmlns="http://www.w3.org/2000/svg" viewBox="0 0 48 48">
 <g>
  <path d="m 36.31 5 c 5.859 4.062 9.688 10.831 9.688 18.5 c 0 12.426 -10.07 22.5 -22.5 22.5 c -7.669 0 -14.438 -3.828 -18.5 -9.688 c 1.037 1.822 2.306 3.499 3.781 4.969 c 4.085 3.712 9.514 5.969 15.469 5.969 c 12.703 0 23 -10.298 23 -23 c 0 -5.954 -2.256 -11.384 -5.969 -15.469 c -1.469 -1.475 -3.147 -2.744 -4.969 -3.781 z m 4.969 3.781 c 3.854 4.113 6.219 9.637 6.219 15.719 c 0 12.703 -10.297 23 -23 23 c -6.081 0 -11.606 -2.364 -15.719 -6.219 c 4.16 4.144 9.883 6.719 16.219 6.719 c 12.703 0 23 -10.298 23 -23 c 0 -6.335 -2.575 -12.06 -6.719 -16.219 z" style="opacity:0.05"/>
  <path d="m 41.28 8.781 c 3.712 4.085 5.969 9.514 5.969 15.469 c 0 12.703 -10.297 23 -23 23 c -5.954 0 -11.384 -2.256 -15.469 -5.969 c 4.113 3.854 9.637 6.219 15.719 6.219 c 12.703 0 23 -10.298 23 -23 c 0 -6.081 -2.364 -11.606 -6.219 -15.719 z" style="opacity:0.1"/>
  <path d="m 31.25 2.375 c 8.615 3.154 14.75 11.417 14.75 21.13 c 0 12.426 -10.07 22.5 -22.5 22.5 c -9.708 0 -17.971 -6.135 -21.12 -14.75 a 23 23 0 0 0 44.875 -7 a 23 23 0 0 0 -16 -21.875 z" style="opacity:0.2"/>
 </g>
 <g transform="matrix(0,-1,1,0,0,48)" style="fill:#5a5daa;fill-opacity:1">
  <path d="M 24,1 C 36.703,1 47,11.297 47,24 47,36.703 36.703,47 24,47 11.297,47 1,36.703 1,24 1,11.297 11.297,1 24,1 z"/>
 </g>
 <path d="m 26.845 12.01 c -0.133 0.011 -0.274 0.055 -0.407 0.094 -1.061 0.309 -1.654 1.409 -1.345 2.469 l 0.845 2.876 -0.031 0 -5.755 1.688 -0.845 -2.876 c -0.309 -1.061 -1.41 -1.684 -2.471 -1.375 -1.061 0.309 -1.686 1.409 -1.376 2.469 l 0.845 2.907 -2.878 0.844 c -1.061 0.309 -1.654 1.409 -1.345 2.469 0.309 1.061 1.41 1.653 2.471 1.344 l 2.878 -0.844 1.689 5.782 -2.878 0.844 c -1.061 0.309 -1.686 1.409 -1.376 2.469 0.309 1.061 1.41 1.684 2.471 1.375 l 2.909 -0.844 0.845 2.876 c 0.309 1.061 1.41 1.653 2.471 1.344 1.061 -0.309 1.654 -1.409 1.345 -2.469 l -0.845 -2.876 5.787 -1.688 0.845 2.876 c 0.309 1.061 1.41 1.684 2.471 1.375 1.061 -0.309 1.686 -1.409 1.376 -2.469 l -0.845 -2.907 2.878 -0.844 c 1.061 -0.309 1.654 -1.409 1.345 -2.469 -0.309 -1.061 -1.41 -1.653 -2.471 -1.344 l -2.878 0.844 0 -0.031 -1.689 -5.751 2.878 -0.844 c 1.061 -0.309 1.686 -1.409 1.376 -2.469 c -0.309 -1.061 -1.41 -1.684 -2.471 -1.375 l -2.909 0.844 -0.845 -2.876 c -0.271 -0.928 -1.136 -1.514 -2.064 -1.438 z m 0.188 9.252 1.689 5.782 0 0.031 -5.755 1.657 -1.689 -5.751 0 -0.031 5.755 -1.688 z" style="fill:#000;opacity:0.1;fill-opacity:1;stroke:none;fill-rule:nonzero"/>
 <g>
  <path d="m 40.03 7.531 c 3.712 4.084 5.969 9.514 5.969 15.469 0 12.703 -10.297 23 -23 23 c -5.954 0 -11.384 -2.256 -15.469 -5.969 4.178 4.291 10.01 6.969 16.469 6.969 c 12.703 0 23 -10.298 23 -23 0 -6.462 -2.677 -12.291 -6.969 -16.469 z" style="opacity:0.1"/>
 </g>
 <path d="m 25.844 11 c -0.132 0.011 -0.274 0.055 -0.406 0.094 c -1.06 0.309 -1.653 1.408 -1.344 2.469 l 0.844 2.875 l -0.031 0 l -5.75 1.688 l -0.844 -2.875 c -0.309 -1.06 -1.408 -1.684 -2.469 -1.375 c -1.06 0.309 -1.684 1.408 -1.375 2.469 l 0.844 2.906 l -2.875 0.844 c -1.06 0.309 -1.653 1.408 -1.344 2.469 c 0.309 1.06 1.408 1.653 2.469 1.344 l 2.875 -0.844 l 1.688 5.781 l -2.875 0.844 c -1.06 0.309 -1.684 1.408 -1.375 2.469 c 0.309 1.06 1.408 1.684 2.469 1.375 l 2.906 -0.844 l 0.844 2.875 c 0.309 1.06 1.408 1.653 2.469 1.344 c 1.06 -0.309 1.653 -1.408 1.344 -2.469 l -0.844 -2.875 l 5.781 -1.688 l 0.844 2.875 c 0.309 1.06 1.408 1.684 2.469 1.375 c 1.06 -0.309 1.684 -1.408 1.375 -2.469 l -0.844 -2.906 l 2.875 -0.844 c 1.06 -0.309 1.653 -1.408 1.344 -2.469 c -0.309 -1.06 -1.408 -1.653 -2.469 -1.344 l -2.875 0.844 l -1.688 -5.781 l 2.875 -0.844 c 1.06 -0.309 1.684 -1.408 1.375 -2.469 c -0.309 -1.06 -1.408 -1.684 -2.469 -1.375 l -2.906 0.844 l -0.844 -2.875 c -0.27 -0.928 -1.135 -1.514 -2.063 -1.438 z m 0.188 9.281 l 0.031 0 l 1.656 5.75 l 0 0.031 l -5.75 1.656 l -0.031 0 l -1.656 -5.75 l 0 -0.031 l 5.75 -1.656 z" style="fill:#f8f8fb;opacity:1;fill-opacity:1;stroke:none;fill-rule:nonzero"/>
</svg>
